!!!!SEGMENT: pl-kk--kk-i-6--024-003_lilius-franciszek--missa-patrem.krn
!!!cenid: 16xx:981
!!!COM: Lilius, Franciszek
!!!COM-rismID: pe30020509
!!!CDT: ~1600-1657
!!!CNT: Polish
!!!OPR: Missa
!!!OTL: Patrem
!!!OMV: 003
!!!PDT:
!!!AGN: Sacred; Mass
!!!SMS-siglum: PL-Kk
!!!SMS-shelfmark: Kk.I.6
!!!SMS-shelfwork: 024-003 M
!!!SMS-variant:
!!!SMS-altvar:
!!!NIFC-rismSourceID: 1001135889
!!!NIFC-islandoraID: pl-kk:1634
!!!URL-pdf-islandora: https://repozytorium.nifc.pl/islandora/object/pl-kk%3A1634/datastream/PDF/view
!!!URL-scan: https://polish.musicsources.pl/pl/lokalizacje/galeria/rekopisy/6133 @EN{Scan on Polish Music Sources Website} @PL{Skany w portalu Dziedzictwo Muzyki Polskiej w otwartym dostępie}
!!!ONB-nifc: UWAGA: C (skan 0017-0022, s. 31-41), T (skan 0120-0126, s. 45-56), B (skan 0231-0237, s. 43-54) Części Mszy: 1 Kyrie, 2. Et in terra, 3. Patrem, 4. Sanctus, 5. Agnus Dei
!!!AIN: 1 empty 1 tenor 1 vox
!!!key:
**kern	**text	**kern	**text	**kern	**text
*part3	*part3	*part2	*part2	*part1	*part1
*staff3	*staff3	*staff2	*staff2	*staff1	*staff1
*Iempty	*	*Itenor	*	*Ivox	*
*I"Baſsus.	*	*I"Tenor.	*	*I"Cantus.	*
*I'B	*	*I'T	*	*I'S	*
*clefF4	*	*clefC4	*	*clefC4	*
*k[b-]	*	*k[b-]	*	*k[b-]	*
*F:	*	*F:	*	*F:	*
*M2/1	*	*M2/1	*	*M2/1	*
*met(C|)	*	*met(C|)	*	*met(C|)	*
=1-	=1-	=1-	=1-	=1-	=1-
1r	.	1d	PA-	1r	.
!	!	!LO:TX:t=P:problem=2\middle or right&colon; global	!	!	!
!	!	!	!	!LO:TX:t=P:problem=kreska pseudotaktowa	!
1G	Pa-	2d\	-trem	1B-	PA-
.	.	2d\	O-	.	.
=2-	=2-	=2-	=2-	=2-	=2-
!LO:TX:t=P:problem=2\middle or right&colon; global	!	!	!	!LO:TX:t=P:problem=all\middle or right&colon; global	!
2G\	-trem	2B-\	-mni-	2B-\	-trem
2G\	O-	2d\	-po-	1G	O-
2C/	-mni-	(<1c	-ten-	.	.
2C/	-po-	.	.	2.c\	-mni-
=3-	=3-	=3-	=3-	=3-	=3-
1F	-ten-	1A)	-tem	.	.
.	.	.	.	4c\	-po-
!	!	!	!	!LO:TX:t=P:problem=kreska pseudotaktowa	!
.	.	.	.	2c\	-ten-
!LO:TX:t=P:global:problem=przecinek oddechowy jako rozdzielacz słów	!	!LO:TX:t=P:global:problem=przecinek oddechowy jako rozdzielacz słów	!	!LO:TX:a:t=P:problem=przecinek oddechowy jako rozdzielacz słów	!
2C,</	-tem	2G,</	.	2c,<\	-tem
!	!	!	!	!LO:TX:t=P:problem=kreska pseudotaktowa	!
2C/	fac-	2G/	fac-	2c\	fac-
=4-	=4-	=4-	=4-	=4-	=4-
1D	-to-	1F	-to-	2A/	-to-
!	!	!	!	!LO:TX:t=P:problem=kreska pseudotaktowa	!
!	!	!	!	!LO:TX:t=P:problem=♯ below	!
!	!	!	!	!LO:N:acc=#	!
.	.	.	.	2Bn\	-rem
*	*	*	*	*custos:d	*
2C/	-rem	2G/	-rem	2c\	Cae-
!	!	!	!	!LO:PB:g=original	!
2.BB-/	Cae-	2.B-\	Cae-	2.d\	Cae-
=5-	=5-	=5-	=5-	=5-	=5-
.	.	.	.	.	.
!	!	!LO:TX:t=P:problem=4\left or middle&colon; global	!	!	!
4BB-/	-li,	4B-\	li	4d\	-li
*custos:GG	*	*custos:G	*	*	*
2C/	et	2G/	et	1c	et
!LO:LB:g=original	!	!LO:LB:g=original	!	!	!
1GG	ter-	1G	ter-	.	.
!	!	!	!	!LO:TX:t=P:problem=kreska pseudotaktowa	!
!	!	!	!	!LO:TX:t=P:problem=♯ below	!
!	!	!	!	!LO:N:acc=#	!
.	.	.	.	2Bn\	ter-
=6-	=6-	=6-	=6-	=6-	=6-
1C	-rae	0G	-rae	1c	-rae
2.C/	vi-	.	.	2.c\	Vi-
!	!	!	!	!LO:TX:t=P:problem=kreska pseudotaktowa	!
4C/	-si-	.	.	4c\	-si-
=7-	=7-	=7-	=7-	=7-	=7-
2D/	-bi-	0r	.	2B-y\	-bi-
2E\	-li-	.	.	2G/	-li-
!	!	!	!	!LO:TX:t=P:problem=kreska pseudotaktowa	!
2F\	-um	.	.	1A	-um
1F\	O-	.	.	.	.
=8-	=8-	=8-	=8-	=8-	=8-
.	.	2.G/	Vi-	2B-\	O-
2E\	.	.	.	2c\	.
.	.	4G/	-si-	.	.
2.D/	.	2A/	-bi-	2.d\	.
!	!	!LO:TX:t=P:problem=♯ below	!	!	!
!	!	!LO:N:acc=#	!	!	!
.	.	2Bn\	-li-	.	.
4D/	-mni-	.	.	4d\	-mni-
=9-	=9-	=9-	=9-	=9-	=9-
1C	-um	2c\	-um	1G	-um
.	.	1c	O-	.	.
2.G\	et	.	.	1rA	.
!	!	!LO:TX:t=P:problem=♯ below	!	!	!
!	!	!LO:N:acc=#	!	!	!
.	.	2Bn\	-mni-	.	.
!LO:TX:t=P:problem=4\left or middle&colon; global	!	!	!	!	!
4G\	in-	.	.	.	.
=10-	=10-	=10-	=10-	=10-	=10-
4E\	-vi-	1c	-um	2.c\	et
4C/	-si-	.	.	.	.
4E\	-bi-	.	.	.	.
*	*	*	*	*custos:A	*
4E\	-li-	.	.	4c\	in-
*custos:C	*	*	*	*	*
!	!	!	!	!LO:LB:g=original	!
1D	-um	1r	.	4A/	-vi-
.	.	.	.	4F/	-si-
.	.	.	.	4A/	-bi-
!	!	!	!	!LO:TX:t=P:problem=kreska pseudotaktowa	!
.	.	.	.	4A/	-li-
!LO:PB:g=original	!	!	!	!	!
=11-	=11-	=11-	=11-	=11-	=11-
4r	.	2r	.	1G	-um
2C/	et	.	.	.	.
.	.	2.G/	et	.	.
4C/	in-	.	.	.	.
4BB-/	-vi-	.	.	1r	.
4GG/	-si-	4G/	in-	.	.
[<4BB-/	-bi-	4F/	-vi-	.	.
4BB-/]	.	4D/	-si-	.	.
=12-	=12-	=12-	=12-	=12-	=12-
1AA	-li-	2F/	-bi-	2.c\	et
.	.	4E/	.	.	.
!	!	!	!	!LO:TX:t=P:problem=kreska pseudotaktowa	!
.	.	4F/	.	4c\	in-
1GG	-um	1.G	-li-	4B-\	-vi-
.	.	.	.	4G/	-si-
.	.	.	.	[>4B-\	-bi-
.	.	.	.	4B-\]	-li-
=13-	=13-	=13-	=13-	=13-	=13-
!	!	!	!	!LO:TX:t=P:problem=kreska pseudotaktowa	!
1rD	.	.	.	1A	-um
!	!	!LO:TX:t=P:problem=♯ below	!	!	!
.	.	2F#X/	.	.	.
!	!	!LO:LB:g=original	!	!	!
2rBB	.	2G/	-um	2G,</	.
1C/	et	1c\	et	1G/	Et
=14-	=14-	=14-	=14-	=14-	=14-
.	.	.	.	.	.
!	!	!	!	!LO:TX:t=P:problem=kreska pseudotaktowa	!
2C/	in	2c\	in	2G/	in
1C	U-	1c	U-	1G	U-
=15-	=15-	=15-	=15-	=15-	=15-
1C	-num	1c	-num	1G	-num
1.BB-	Do-	1.d	Do-	1.B-	Do-
=16-	=16-	=16-	=16-	=16-	=16-
.	.	.	.	.	.
*	*	*	*	*custos:G	*
2FF/	-mi-	2c\	-mi-	2A/	-mi-
!	!	!	!	!LO:LB:g=original	!
!	!	!	!	!LO:TX:t=P:problem=kreska pseudotaktowa	!
1C	-num	1c	-nu(m)	1G	-num
=17-	=17-	=17-	=17-	=17-	=17-
0D	Je-	2.A/	Je-	2.F/	Je-
.	.	4G/	.	4G/	.
.	.	1Fny	.	1A	.
=18-	=18-	=18-	=18-	=18-	=18-
*custos:BB-	*	*	*	*	*
1AA	-sum	1E	.	1A	-ſum
!LO:LB:g=original	!	!	!	!	!
1.BB-	Chri-	2D/	-ſum	(<0F	Chri-
.	.	1d\	Chri-	.	.
=19-	=19-	=19-	=19-	=19-	=19-
.	.	.	.	.	.
2AA/	.	2c\	.	.	.
0GG	.	0B-y	.	0G)	.
=20-	=20-	=20-	=20-	=20-	=20-
.	.	.	.	.	.
1FF	-stum	1A	-ſtum	2C/	-ſtum
.	.	.	.	2.c\	fi-
=21-	=21-	=21-	=21-	=21-	=21-
2r	.	2r	.	.	.
.	.	.	.	4c\	-li-
*2\right	*	*	*	*	*
!	!	!	!	!LO:TX:t=P:problem=kreska pseudotaktowa	!
2.F\	fi-	2.A/	fi-	2c\	-um
*2\left	*	*	*	*	*
.	.	.	.	1.A	De-
4F\	-li-	4A/	-li-	.	.
*	*	*custos:d	*	*	*
2F\	-um	2c\	-um	.	.
!	!	!LO:LB:g=original	!	!	!
=22-	=22-	=22-	=22-	=22-	=22-
1.D	De-	1d	De-	.	.
!	!	!	!	!LO:TX:t=P:problem=kreska pseudotaktowa	!
.	.	.	.	2F/	-i
.	.	1d	-i	1.B-	U-
2BB-/	-i	.	.	.	.
=23-	=23-	=23-	=23-	=23-	=23-
1E-X	U-	1G	U-	.	.
.	.	.	.	2B-\	-ni-
1E-	-ni-	2G/	-ni-	2.c\	-ge-
.	.	1e-X\	-ge-	.	.
*	*	*	*	*custos:A	*
.	.	.	.	4B-\	.
!	!	!	!	!LO:LB:g=original	!
=24-	=24-	=24-	=24-	=24-	=24-
1.F	-ge-	.	.	2A/	.
.	.	2d\	.	1B-	.
.	.	2.c\	.	.	.
!	!	!	!	!LO:TX:t=P:problem=kreska pseudotaktowa	!
2F\	-ni-	.	.	2A/	-ni-
.	.	4c\	-ni-	.	.
=25-	=25-	=25-	=25-	=25-	=25-
1BB-	-tum	1d	-tum	1B-,<	-tum
2.F\	et	2.c\	et	2.A/	et
*custos:F	*	*	*	*	*
!	!	!	!	!LO:TX:t=P:problem=kreska pseudotaktowa	!
4F\	ex	4c\	ex	4A/	ex
!LO:LB:g=original	!	!	!	!	!
=26-	=26-	=26-	=26-	=26-	=26-
2F\	Pa-	2c\	Pa-	2A/	Pa-
2C/	-tre	2c\	-tre	2G/	-tre
1D	Na-	2A/	na-	1F	Na-
.	.	2B-\	-tum	.	.
=27-	=27-	=27-	=27-	=27-	=27-
!	!	!	!	!LO:TX:t=P:problem=kreska pseudotaktowa	!
1C,<	-tum	(<1c	an-	1G,<	-tum
1GG	an-	1d)	.	1B-	an-
=28-	=28-	=28-	=28-	=28-	=28-
*	*	*custos:B	*	*	*
2D/	-te	2d\	-te	2A/	-te
!	!	!LO:LB:g=original	!	!	!
2.E-X\	o-	2.B-\	O-	2.G/	O-
4E-\	-mni-	4B-\	-mni-	4G/	-mni-
!	!	!	!	!LO:TX:t=P:problem=kreska pseudotaktowa	!
2F\	-a	2A/	-a	2F/	-a
=29-	=29-	=29-	=29-	=29-	=29-
2.C/	Sae-	2.G/	Sae-	2F/	Sae-
.	.	.	.	2E/	-cu-
4C/	-cu-	4G/	-cu-	.	.
2FF/	-la	1A	-la	2F,</	-la
*	*	*	*	*custos:G	*
!	!	!	!	!LO:TX:t=P:problem=kreska pseudotaktowa	!
2F\	De-	.	.	2F/	De-
=30-	=30-	=30-	=30-	=30-	=30-
2Eny\	-um	0rA	.	2G/	-um
!	!	!	!	!LO:TX:t=P:problem=kreska pseudotaktowa	!
2D/	de	.	.	2B-\	de
2F\	De-	.	.	4A/	De-
.	.	.	.	4B-\	.
2E\	.	.	.	1c\	.
=31-	=31-	=31-	=31-	=31-	=31-
1D	.	2rF	.	.	.
!	!	!	!	!LO:TX:t=P:problem=kreska pseudotaktowa	!
.	.	2F/	lu-	2B-\	.
2C/	-o	2G/	-men	2c\	-o
*custos:F	*	*	*	*	*
2r	.	2B-\	de	2r	.
!LO:LB:g=original	!	!	!	!	!
=32-	=32-	=32-	=32-	=32-	=32-
0rD	.	4A/	lu-	0r	.
.	.	4B-\	.	.	.
.	.	1c	-mi-	.	.
!	!	!LO:TX:t=P:problem=♯ below	!	!	!
!	!	!LO:N:acc=#	!	!	!
.	.	2Bn\	.	.	.
=33-	=33-	=33-	=33-	=33-	=33-
2r	.	1c	-ne	2r	.
2.F\	De-	.	.	2.A/	De-
.	.	1r	.	.	.
4D/	-um	.	.	4B-\	-um
!	!	!	!	!LO:TX:t=P:problem=kreska pseudotaktowa	!
2E\	Ve-	.	.	2G/	Ve-
=34-	=34-	=34-	=34-	=34-	=34-
1F	-rum	2c\	de	1F	-rum
.	.	2.A/	De-	.	.
1r	.	.	.	1rA	.
.	.	4B-y\	-o	.	.
*	*	*custos:F	*	*	*
.	.	2G/	Ve-	.	.
!	!	!LO:LB:g=original	!	!	!
=35-	=35-	=35-	=35-	=35-	=35-
2.F\	ge-	1F	-ro	2.A/	ge-
4F\	-ni-	.	.	4A/	-ni-
2F\	-tum	0r	.	2A/	-tum
!	!	!	!	!LO:TX:t=P:problem=kreska pseudotaktowa	!
2C/	non	.	.	2c\	Non
=36-	=36-	=36-	=36-	=36-	=36-
2D/	fa-	.	.	1B-	fa-
2E\	.	.	.	.	.
*lig	*	*	*	*	*
1F	-ctum	1r	.	1A	.
=37-	=37-	=37-	=37-	=37-	=37-
*	*	*	*	*custos:c	*
1C	.	2.c\	Con-	0G	-ctum
.	.	4c\	-ſub-	.	.
*Xlig	*	*	*	*	*
1r	.	2B-\	-ſtan-	.	.
.	.	2G/	-ti-	.	.
!	!	!	!	!LO:LB:g=original	!
=38-	=38-	=38-	=38-	=38-	=38-
2.F\	Con-	4A/	-a-	1r	.
.	.	4B-\	.	.	.
.	.	1c	-lem	.	.
4F\	-sub-	.	.	.	.
2E\	-stan-	.	.	2.c\	Con-
*custos:D	*	*	*	*	*
2C/	-ti-	2G/	.	.	.
.	.	.	.	4c\	-sub-
!LO:LB:g=original	!	!	!	!	!
=39-	=39-	=39-	=39-	=39-	=39-
2D/	-a-	2d\	Pa-	2B-\	-stan-
!	!	!	!	!LO:TX:t=P:problem=kreska pseudotaktowa	!
2E\	-lem	2c\	-tri	2G/	-ti-
2F\	Pa-	4r	.	2A/	-a-
.	.	2f\	Con-	.	.
2D,</	-tri	.	.	2B-\	-lem
.	.	4f\	-sub-	.	.
=40-	=40-	=40-	=40-	=40-	=40-
2.C/	Con-	2eny\	-stan-	1c	Pa-
.	.	2c\	-ti-	.	.
4C/	-sub-	.	.	.	.
2BB-/	-stan-	2d\	-a-	1G	-tri
*	*	*custos:f	*	*	*
2GG/	-ti-	2e\	-lem	.	.
!	!	!LO:PB:g=original	!	!	!
=41-	=41-	=41-	=41-	=41-	=41-
2AA/	-a-	1f	Pa-	1r	.
2BB-/	-lem	.	.	.	.
2C/	Pa-	2c\	-tri	2.c\	Con-
2AA/	.	1F/	Con-	.	.
.	.	.	.	4c\	-sub-
=42-	=42-	=42-	=42-	=42-	=42-
1GG	.	.	.	2B-\	-stan-
!	!	!	!	!LO:TX:t=P:problem=kreska pseudotaktowa	!
.	.	2E/	-ſub-	2G/	-ti-
1FF	.	2.F/	-stan-	4A/	-a-
.	.	.	.	4B-\	-lem
.	.	.	.	1c\	Pa-
.	.	4E/	-ti-	.	.
=43-	=43-	=43-	=43-	=43-	=43-
1GG	.	4D/	-a-	.	.
.	.	4C/	-lem	.	.
*	*	*	*	*custos:c	*
!	!	!	!	!LO:TX:t=P:problem=kreska pseudotaktowa	!
!	!	!	!	!LO:TX:t=P:problem=♯ below	!
!	!	!	!	!LO:N:acc=#	!
.	.	2D/	Pa-	2Bn\	.
!	!	!	!	!LO:PB:g=original	!
2C,</	-tri	2E/	-tri	2c\	-tri
1C/	per	1G/	per	1c\	per
=44-	=44-	=44-	=44-	=44-	=44-
.	.	.	.	.	.
*custos:F	*	*	*	*	*
!	!	!	!	!LO:TX:t=P:problem=kreska pseudotaktowa	!
2C/	quem	2G/	quem	2c\	quem
!LO:LB:g=original	!	!	!	!	!
2.F\	Om-	2.A/	o-	2.c\	O-
!	!	!	!	!LO:TX:t=P:problem=kreska pseudotaktowa	!
4F\	-ni-	4A/	-mni-	4c\	-mni-
=45-	=45-	=45-	=45-	=45-	=45-
1D	-a	2A/	-a	2d\	-a
.	.	1d	fa-	1A	fa-
2.AA/	fa-	.	.	.	.
!	!	!	!	!LO:TX:t=P:problem=kreska pseudotaktowa	!
.	.	2c\	-cta	2A/	-cta
4AA/	-cta	.	.	.	.
=46-	=46-	=46-	=46-	=46-	=46-
2D/	ſunt	2d\	ſunt	2A/	ſunt
*	*	*custos:d	*	*	*
!	!	!	!	!LO:TX:t=P:problem=kreska pseudotaktowa	!
2D/	qui	2d\	qui	2A/	qui
!	!	!	!	!LO:TX:t=P:problem=♯ below	!
!	!	!	!	!LO:N:acc=#	!
!	!	!LO:LB:g=original	!	!	!
2G\	pro-	2d\	pro-	2Bn\	pro-
4G\	-pter	4d\	-pter	4B\	-pter
!	!	!	!	!LO:TX:t=P:problem=♯ below	!
!	!	!	!	!LO:N:acc=#	!
!	!	!	!	!LO:TX:t=P:problem=kreska pseudotaktowa	!
4G\	nos	4d\	nos	4Bn\	nos
=47-	=47-	=47-	=47-	=47-	=47-
2.C/	ho-	2.e\	ho-	2.c\	ho-
4C/	-mi-	4e\	-mi-	4c\	-mi-
2C,</	-nes	2e\	-nes	2c\	-nes
!	!	!	!	!LO:TX:t=P:problem=kreska pseudotaktowa	!
2C/	et	2e\	et	2c\	et
=48-	=48-	=48-	=48-	=48-	=48-
1F	pro-	2f\	pro-	2c\	pro-
*	*	*	*	*custos:B-	*
.	.	2c\	-pter	2A/	-pter
!	!	!	!	!LO:LB:g=original	!
2D/	-pter	2d\	no-	2.B-y\	No-
2.E-X\	No-	1B-\	-ſtram	.	.
.	.	.	.	4B-\	-ſtram
=49-	=49-	=49-	=49-	=49-	=49-
.	.	.	.	2G/	Sa-
4E-\	-ſtram	.	.	.	.
*custos:C	*	*	*	*	*
2D/	Sa-	2B-\	Sa-	1B-	-lu-
!LO:PB:g=original	!	!	!	!	!
1C	-lu-	1c	-lu-	.	.
.	.	.	.	2A/	.
=50-	=50-	=50-	=50-	=50-	=50-
1BB-	-tem	1F	-tem	0B-	-tem
2r	.	2f\	de-	.	.
2B-\	de-	1d\	-ſcen-	.	.
=51-	=51-	=51-	=51-	=51-	=51-
1G	-ſcen-	.	.	1r	.
.	.	2B-\	-dit	.	.
*	*	*custos:d	*	*	*
1F	-dit	2c\	de	2r	.
!	!	!LO:LB:g=original	!	!	!
.	.	2.d\	Cae-	2f\	de-
=52-	=52-	=52-	=52-	=52-	=52-
2rF	.	.	.	1d	-ſcen-
.	.	4c\	.	.	.
2G\	de	2B-\	.	.	.
!	!	!	!	!LO:TX:t=P:problem=kreska pseudotaktowa	!
2.A\	Cae-	1.A	-lis	1c	.
4G\	.	.	.	.	.
=53-	=53-	=53-	=53-	=53-	=53-
4F\	.	.	.	2c\	-dit
4Eny\	.	.	.	.	.
4D/	.	2A/	de	2.d\	de
4C/	.	.	.	.	.
1BB-	.	2B-\	Cae-	.	.
.	.	.	.	4c\	Cae-
.	.	2.d\	.	4B-\	.
!	!	!	!	!LO:TX:t=P:problem=kreska pseudotaktowa	!
.	.	.	.	4A/	.
=54-	=54-	=54-	=54-	=54-	=54-
1C	.	.	.	0G	.
.	.	4c\	.	.	.
.	.	1c	.	.	.
1GG	.	.	.	.	.
!	!	!LO:TX:t=P:problem=♯ below	!	!	!
!	!	!LO:N:acc=#	!	!	!
.	.	2Bn\	.	.	.
=55-	=55-	=55-	=55-	=55-	=55-
!LO:TX:t=P:problem=fermata above/below	!	!	!	!	!
0C;;l	-lis.	0c;;l	-lis.	0E;;l	-lis.
=56-	=56-	=56-	=56-	=56-	=56-
*M2/1	*	*M2/1	*	*M2/1	*
*met(C|)	*	*met(C|)	*	*met(C|)	*
!	!	!LO:TX:t=P:problem=♯ below	!	!	!
!	!	!LO:N:acc=#	!	!	!
0GG	ET	0Bn	ET	0G	ET
=57-	=57-	=57-	=57-	=57-	=57-
1C	in-	1c	in-	1G	in-
1BB-	-car-	2d\	-car-	2B-\	-car-
.	.	1d\	-na-	2.B-\	-na-
=58-	=58-	=58-	=58-	=58-	=58-
1.E-X	-na-	.	.	.	.
.	.	.	.	4A/	.
.	.	4c\	.	4G/	.
.	.	4B-y\	.	4F/	.
.	.	2c\	.	2G/	.
2E-\	-tus	2c\	-tus	2G/	-tus
=59-	=59-	=59-	=59-	=59-	=59-
0D	eſt	0d	eſt	0A	eſt
=60-	=60-	=60-	=60-	=60-	=60-
2rBB	.	2rc	.	2rF	.
2GG/	de	2d\	de	2G/	de
1C	Spi-	2.c\	Spi-	2.G/	Spi-
.	.	4c\	-ri-	4G/	-ri-
=61-	=61-	=61-	=61-	=61-	=61-
2C/	-ri-	2G/	-tu	2E/	-tu
2AA/	-tu	1c	San-	1A	San-
1D	San-	.	.	.	.
!	!	!LO:TX:t=P:problem=♯ below	!	!	!
!	!	!LO:N:acc=#	!	!	!
.	.	2Bn\	.	2F/	.
=62-	=62-	=62-	=62-	=62-	=62-
*custos:BB-	*	*custos:d	*	*custos:B-	*
1C	-cto	1c	-cto	1G	-cto
!LO:LB:g=original	!	!LO:LB:g=original	!	!LO:LB:g=original	!
2rBB	.	2rc	.	2r	.
1BB-/	ex	1d\	ex	1B-\	ex
=63-	=63-	=63-	=63-	=63-	=63-
.	.	.	.	.	.
2BB-/	Ma-	2d\	Ma-	2B-\	Ma-
2E-X\	-ri-	2e-X\	-ri-	4G/	-ri-
.	.	.	.	4A/	-a
2BB-/	-a	2d\	-a	1B-\	Vir-
=64-	=64-	=64-	=64-	=64-	=64-
2.FF/	Vir-	2.c\	Vir-	.	.
.	.	.	.	2A/	-gi-
4FF/	-gi-	4c\	-gi-	.	.
1BB-	-ne	1d	-ne	1B-	-ne
=65-	=65-	=65-	=65-	=65-	=65-
2rGG	.	2r	.	2r	.
2BB-/	et	1d	et	2B-\	et
1FF	ho-	.	.	1.A	ho-
.	.	1c\	ho-	.	.
=66-	=66-	=66-	=66-	=66-	=66-
1GG	-mo	.	.	.	.
.	.	2B-y\	-mo	1G	-mo
(<1D	fac-	2A/	.	.	.
.	.	2.B-\	fac-	2F/	fa-
=67-	=67-	=67-	=67-	=67-	=67-
1E-X)	.	.	.	2.G/	.
.	.	4A/	.	.	.
.	.	1G	.	.	.
.	.	.	.	4A/	.
1.D	.	.	.	2B-\	.
!	!	!LO:TX:t=P:problem=♯ below	!	!	!
.	.	4F#X/	.	4A/	.
.	.	4E/	.	4G/	.
=68-	=68-	=68-	=68-	=68-	=68-
!	!	!LO:TX:t=P:problem=♯ below	!	!	!
.	.	2F#X/	.	2A/	.
!	!	!LO:TX:t=P:problem=♯ below	!	!	!
2D/	-tus	2F#X/	-tus	2A/	-ctus
!LO:TX:t=P:problem=fermata above/below	!	!LO:TX:t=P:problem=fermata above/below	!	!LO:TX:t=P:problem=fermata above/below	!
1GG;;l	eſt.	1G;;l	eſt.	1G;;l	eſt.
=69-	=69-	=69-	=69-	=69-	=69-
*M2/1	*	*M2/1	*	*M2/1	*
*met(C|)	*	*met(C|)	*	*met(C|)	*
*^	*	*	*	*	*
!LO:TX:t=P:problem=partia Cantus. dopisana pomocniczo [#259]	!	!	!	!	!	!
0rF	1.G	.	00r	.	1.G	Cru-
!	!	!	!	!	!LO:TX:t=P:problem=♯ below	!
.	2F/	.	.	.	2F#X/	-ci-
=70-	=70-	=70-	=70-	=70-	=70-	=70-
1rF	1B-	.	.	.	1B-	-fi-
1ryy	1.D	Cru-	.	.	1A	-xus
=71-	=71-	=71-	=71-	=71-	=71-	=71-
2r	.	.	1rA	.	1.d	e-
*v	*v	*	*	*	*	*
2BB-/	-ci-	.	.	.	.
1E-X	-fi-	1.G	Cru-	.	.
.	.	.	.	2c\	-ti-
=72-	=72-	=72-	=72-	=72-	=72-
1D	-xus	.	.	2B-\	-am
.	.	2Fny/	-ci-	2A/	pro
1.G	e-	1B-	-fi-	4G/	No-
.	.	.	.	4A/	.
.	.	.	.	4B-\	.
.	.	.	.	4c\	.
=73-	=73-	=73-	=73-	=73-	=73-
.	.	2A/	-xus	2d\	.
2F\	-ti-	1d	e-	2.A/	.
2E-X\	-am	.	.	.	.
.	.	.	.	4G/	.
2E-\	pro	2c\	-ti-	1G/	.
=74-	=74-	=74-	=74-	=74-	=74-
1D	No-	2B-\	-am	.	.
!	!	!	!	!LO:TX:t=P:problem=♯ below	!
.	.	2A/	pro	2F#X/	.
*	*	*	*	*custos:d	*
1GG	-bis	1.B-	No-	0G	-bis
=75-	=75-	=75-	=75-	=75-	=75-
2rBB	.	.	.	.	.
1C	Cru-	2c\	.	.	.
!	!	!	!	!LO:LB:g=original	!
.	.	1G	-bis	2r	.
*custos:E	*	*	*	*	*
!LO:TX:t=P:problem=♯ below	!	!	!	!	!
!LO:N:acc=#	!	!	!	!	!
2BBn/	-ci-	.	.	1d\	e-
!LO:LB:g=original	!	!	!	!	!
=76-	=76-	=76-	=76-	=76-	=76-
1E-X	-fi-	1r	.	.	.
.	.	.	.	2c\	-ti-
1D	-xus	1.d	e-	2B-\	-am
.	.	.	.	2A/	pro
=77-	=77-	=77-	=77-	=77-	=77-
1.G	e-	.	.	1B-	no-
*	*	*custos:B	*	*	*
.	.	2c\	-ti-	.	.
!	!	!LO:PB:g=original	!	!	!
.	.	2B-\	-am	1G	-bis
*2\right	*	*	*	*	*
2F\	-ti-	2A/	pro	.	.
*2\left	*	*	*	*	*
=78-	=78-	=78-	=78-	=78-	=78-
2E-X\	-am	1.G	No-	1r	.
2D/	pro	.	.	.	.
1C	.	.	.	1.c	e-
.	.	2A/	.	.	.
=79-	=79-	=79-	=79-	=79-	=79-
!	!	!LO:TX:t=P:problem=♯ below	!	!	!
0D	no-	2F#X/	.	.	.
.	.	1G	.	2B-\	-ti-
.	.	.	.	4A/	-am
.	.	.	.	4G/	pro
!	!	!LO:TX:t=P:problem=♯ below	!	!	!
.	.	2F#X/	.	2A/	No-
=80-	=80-	=80-	=80-	=80-	=80-
2GG/	-bis	1G	-bis	2G/	-bis
2G\	Sub	.	.	2B-\	Sub
2.G\	Pon-	2r	.	2.B-\	Pon-
.	.	2d\	Sub	.	.
4G\	-ti-	.	.	4B-\	-ti-
=81-	=81-	=81-	=81-	=81-	=81-
2F\	-o	2.d\	Pon-	2A/	-o
*	*	*	*	*custos:A	*
2D/	Pi-	.	.	2Fny/	Pi-
.	.	4d\	-ti-	.	.
!	!	!	!	!LO:PB:g=original	!
2.F\	-la-	4c\	-o	2.A/	-la-
.	.	4A/	Pi-	.	.
.	.	1c\	-la-	.	.
4Eny\	.	.	.	4G/	.
=82-	=82-	=82-	=82-	=82-	=82-
*custos:C	*	*	*	*	*
1D	.	.	.	1F	.
!	!	!LO:TX:t=P:problem=♯ below	!	!	!
!	!	!LO:N:acc=#	!	!	!
.	.	2Bn\	.	.	.
!LO:LB:g=original	!	!	!	!	!
1C,<	-to	2.c\	.	2G/	.
.	.	.	.	1C/	-to
.	.	4B-y\	.	.	.
=83-	=83-	=83-	=83-	=83-	=83-
*lig	*	*	*	*	*
*	*	*custos:F	*	*	*
1FF	Paſ-	1A	-to	.	.
.	.	.	.	1D	Paſ-
!	!	!LO:LB:g=original	!	!	!
1GG	.	0r	.	.	.
.	.	.	.	1E/	-sus
*Xlig	*	*	*	*	*
=84-	=84-	=84-	=84-	=84-	=84-
1AA	-sus	.	.	.	.
.	.	.	.	2.F/	et
*	*	*lig	*	*	*
1BB-y	et	1Fny	Paſ-	.	.
.	.	.	.	4E/	.
.	.	.	.	2D/	Se-
=85-	=85-	=85-	=85-	=85-	=85-
1GG	Se-	1G	.	2d\	-pul-
.	.	.	.	4c\	.
.	.	.	.	4B-\	.
*	*	*Xlig	*	*	*
1FF	-pul-	2A/	-ſus	1c	.
.	.	2.F/	et	.	.
=86-	=86-	=86-	=86-	=86-	=86-
2.BB-/	.	.	.	2B-\	.
.	.	4D/	Se-	.	.
.	.	1F	-pul-	2F/	.
4AA/	.	.	.	.	.
1.GG	.	.	.	1.G	.
.	.	4E/	.	.	.
.	.	4D/	.	.	.
=87-	=87-	=87-	=87-	=87-	=87-
.	.	2E/	.	.	.
2GG/	-tus	2E/	-tus	2G/	-tus
1FF	eſt	1F	eſt	1C	eſt
=88-	=88-	=88-	=88-	=88-	=88-
2F\	et	1r	.	1rF	.
4G\	re-	.	.	.	.
4A\	-ſur-	.	.	.	.
2B-\	-re-	2B-\	Et	2rF	.
*custos:F	*	*	*	*custos:A	*
2BB-/	-xit	4d\	re-	2F/	et
.	.	4eny\	-ſur-	.	.
!LO:PB:g=original	!	!	!	!LO:LB:g=original	!
=89-	=89-	=89-	=89-	=89-	=89-
2F\	et	2f\	-re-	4A/	re-
.	.	.	.	4B-\	-ſur-
4A\	re-	2e\	-xit	2c\	-re-
4B-\	-sur-	.	.	.	.
2c\	-re-	2c\	et	2A/	-xit
2G\	-xit	4B-\	re-	4r	.
*	*	*custos:d	*	*	*
.	.	4c\	-ſur-	4G/	et
!	!	!LO:LB:g=original	!	!	!
=90-	=90-	=90-	=90-	=90-	=90-
*	*ij	*	*	*	*
2GG/	et	2d\	-re-	4B-\	re-
.	.	.	.	4c\	-ſur-
4BB-/	re-	2B-\	-xit	2.d\	-re-
4C/	-sur-	.	.	.	.
1D	-re-	2A/	et	.	.
.	.	.	.	8c\L	.
.	.	.	.	8B-\J	.
.	.	4d\	re-	4A/	.
.	.	4c\	-ſur-	4F/	.
=91-	=91-	=91-	=91-	=91-	=91-
2GG/	-xit	4B-\	-re-	2G,</	-xit
*	*Xij	*	*	*	*
.	.	4B-\	-xit	.	.
2.G\	ter-	2.d\	ter-	2.B-\	ter-
4G\	-ti-	4d\	-ti-	4B-\	-ti-
2E-X\	-a	2e-X\	-a	2B-\	-a
=92-	=92-	=92-	=92-	=92-	=92-
1F	di-	1c	di-	4A/	di-
.	.	.	.	2B-\	.
.	.	.	.	4A/	.
2BB-/	-e	2d\	-e	2B-\	-e
2BB-/	Se-	2f\	Se-	2d\	Se-
=93-	=93-	=93-	=93-	=93-	=93-
*	*	*	*	*custos:c	*
1FF	-cun-	1f	-cun-	1c	-cun-
!	!	!	!	!LO:LB:g=original	!
2C/	-do	2eny\	du(m)	2c\	-du(m)
*custos:AA	*	*	*	*	*
2D/	Scri-	1d\	Scrip-	2A/	ſcrip-
!LO:LB:g=original	!	!	!	!	!
=94-	=94-	=94-	=94-	=94-	=94-
1AA	-ptu-	.	.	1A	-tu-
!	!	!LO:TX:t=P:problem=♯ below	!	!	!
.	.	2c#X\	-tu-	.	.
2D/	-ras	1d	-ras	2A/	-ras
4D/	et	.	.	4F/	et
4D/	a-	.	.	4F/	a-
=95-	=95-	=95-	=95-	=95-	=95-
*	*	*custos:F	*	*	*
2E-X\	-scen-	0r	.	2G/	-ſcen-
4E-\	-dit	.	.	4G/	-dit
4F\	.	.	.	4A/	.
4G\	in	.	.	4B-\	in
4A\	.	.	.	4c\	.
2B-\	Cae-	.	.	2d\	Cae-
!	!	!LO:LB:g=original	!	!	!
=96-	=96-	=96-	=96-	=96-	=96-
1F	-lum	2.F/	et	1c	-lum
.	.	4F/	a-	.	.
1rD	.	2B-\	-scen-	1r	.
.	.	4B-\	-dit	.	.
.	.	4cny\	in	.	.
=97-	=97-	=97-	=97-	=97-	=97-
2.FF/	et	4d\	Cae-	2.A/	et
.	.	4e\	.	.	.
.	.	2f\	.	.	.
4FF/	a-	.	.	4A/	a-
2GG/	-scen-	1d,<	-lum	2B-\	-ſcen-
4GG/	-dit	.	.	4B-\	-dit
4AA/	.	.	.	4c\	.
=98-	=98-	=98-	=98-	=98-	=98-
4BB-/	in	2.F/	et	4d\	in
4C/	.	.	.	4e\	.
*custos:C	*	*	*	*	*
2D/	Cae-	.	.	4f\	Cae-
*	*	*	*	*custos:c	*
.	.	4F/	a-	4d\	.
!LO:LB:g=original	!	!	!	!LO:LB:g=original	!
1C	.	2G/	-scen-	2.c\	.
.	.	4G/	-dit	.	.
.	.	4A/	.	4c\	-lum
=99-	=99-	=99-	=99-	=99-	=99-
1BB-	.	4B-\	in	2d\	in
.	.	4c\	.	.	.
.	.	2d\	Cae-	4d\	Cae-
.	.	.	.	4e\	.
1FF	.	1c	.	1f	.
=100-	=100-	=100-	=100-	=100-	=100-
1.BB-,<	lum	1.d,<	-lum	1f	-lum
.	.	.	.	2r	.
*	*	*custos:c	*	*	*
2BB-/	Se-	2d\	Se-	2B-\	Se-
!	!	!LO:LB:g=original	!	!	!
=101-	=101-	=101-	=101-	=101-	=101-
1F	-det	1c	-det	1A	-det
2C/	ad	2c\	ad	2G/	ad
2.D/	dex-	2.A/	dex-	2.d\	dex-
=102-	=102-	=102-	=102-	=102-	=102-
.	.	.	.	.	.
4D/	-te-	4A/	-te-	4d\	-te-
2AA/	-ram	1A	-ram	2c\	-ram
2.BB-/	Pa-	.	.	1B-	Pa-
.	.	1G/	.	.	.
4C/	.	.	.	.	.
=103-	=103-	=103-	=103-	=103-	=103-
0D	.	.	.	0A	.
!	!	!LO:TX:t=P:problem=♯ below	!	!	!
.	.	4F#X/	Pa-	.	.
.	.	4E/	.	.	.
!	!	!LO:TX:t=P:problem=♯ below	!	!	!
.	.	1F#X	.	.	.
=104-	=104-	=104-	=104-	=104-	=104-
!LO:TX:t=P:problem=fermata above/below	!	!LO:TX:t=P:problem=fermata above/below	!	!LO:N:acc=#	!
0GG;;l	tris	0G;;l	-tris	0Bn;;l	-tris.
!	!	!	!	!LO:LB:g=original	!
=105-	=105-	=105-	=105-	=105-	=105-
*M3/1	*	*M3/1	*	*M3/1	*
0.D	ET	0.d	ET	0.A	ET
=106-	=106-	=106-	=106-	=106-	=106-
!	!	!	!	!LO:TX:t=P:problem=♯ below	!
!	!	!	!	!LO:N:acc=#	!
1.GG	i-	1.d	i-	1.Bn	i-
2GG/	-te-	2d\	-te-	2B\	-te-
!	!	!	!	!LO:TX:t=P:problem=♯ below	!
!	!	!	!	!LO:N:acc=#	!
1GG	-rum	1d	-rum	1Bn	-rum
=107-	=107-	=107-	=107-	=107-	=107-
1C	Ven-	1G	Ven-	1c	Ven-
1F	-tu-	1A	-tu-	1c	-tu-
!	!	!	!	!LO:TX:t=P:problem=♯ below	!
!	!	!	!	!LO:N:acc=#	!
1D	-rus	1Fny	-rus	1Bn	-rus
=108-	=108-	=108-	=108-	=108-	=108-
0C	eſt	0G	eſt	0c	eſt
1C	cum	1c	cum	1G	cum
=109-	=109-	=109-	=109-	=109-	=109-
1.F	glo-	1.c	glo-	1.A	glo-
2F\	-ri-	2c\	-ri-	2A/	-ri-
*	*	*custos:A	*	*	*
1C	-a	1c	-a	1G	-a
!	!	!LO:PB:g=original	!	!	!
=110-	=110-	=110-	=110-	=110-	=110-
0D	iu-	0A	iu-	0F	iu-
1BB-	-di-	1G	-di-	1D	-di-
=111-	=111-	=111-	=111-	=111-	=111-
*custos:D	*	*	*	*custos:F	*
0.AA	-ca-	0.A	-ca-	0.E	-ca-
!LO:LB:g=original	!	!	!	!LO:LB:g=original	!
=112-	=112-	=112-	=112-	=112-	=112-
0D	-re	0A,<	-re	0F,<	-re
1D	Vi-	1d	Vi-	1A	Vi-
=113-	=113-	=113-	=113-	=113-	=113-
*	*	*col	*	*	*
0G	-vos	1d	-vos	0B-y	-vos
.	.	1G	et	.	.
1E-X	et	(<0B-	Mor-	1B-	et
=114-	=114-	=114-	=114-	=114-	=114-
0C	Mor-	.	.	0c	Mor-
.	.	1A)	.	.	.
1C	-tu-	1A	tu-	1c	-tu-
*	*	*Xcol	*	*	*
=115-	=115-	=115-	=115-	=115-	=115-
1BB-,<	-os	1B-,<	-os	1F,<	-os
1BB-	cu-	1d	Cu-	1B-	Cu-
1BB-	-ius	1d	-ius	1B-	-ius
=116-	=116-	=116-	=116-	=116-	=116-
1F	re-	1c	re-	1A	re-
1F	-gni	1c	-gni	1A	-gni
*	*	*custos:f	*	*	*
1BB-	non	1d	non	1B-	Non
!	!	!LO:LB:g=original	!	!	!
=117-	=117-	=117-	=117-	=117-	=117-
0FF	e-	0f	e-	0c	e-
1GG	-rit	1d	-rit	1B-	-rit
=118-	=118-	=118-	=118-	=118-	=118-
2AA/	fi-	0.c	fi-	(<0A	fi-
2GG/	.	.	.	.	.
2AA/	.	.	.	.	.
2BB-/	.	.	.	.	.
*custos:FF	*	*	*	*	*
1C	.	.	.	1G)	.
!LO:LB:g=original	!	!	!	!	!
=119-	=119-	=119-	=119-	=119-	=119-
*	*	*	*	*custos:G	*
0.FF	-nis	0.c	-nis	0.A	-nis.
!	!	!	!	!LO:PB:g=original	!
=120-	=120-	=120-	=120-	=120-	=120-
0C	Et	0c	Et	0G	Et
1C	in	1c	in	1G	in
=121-	=121-	=121-	=121-	=121-	=121-
1.C	Spi-	1.c	Spi-	1.G	Spi-
2C/	-ri-	2c\	-ri-	2G/	-ri-
1D	-tum	1A	-tum	1F	-tum
=122-	=122-	=122-	=122-	=122-	=122-
0C	San-	0c	San-	0G	San-
1AA	-ctum	1c	-ctum	1A	-ctum
=123-	=123-	=123-	=123-	=123-	=123-
0BB-	D(o-	0B-	Do-	0F	Do-
1GG	-mi)-	1B-	-mi-	1G	-mi-
=124-	=124-	=124-	=124-	=124-	=124-
0FF,<	-num	0c	-num	0A	-num
*	*	*custos:d	*	*	*
1F	et	1c	et	1A	et
!	!	!LO:LB:g=original	!	!	!
=125-	=125-	=125-	=125-	=125-	=125-
0D	Vi-	0d	Vi-	0A	Vi-
1BB-	-vi-	1d	-vi-	1B-	-vi-
=126-	=126-	=126-	=126-	=126-	=126-
*col	*	*	*	*col	*
1C	-fi-	1c	-fi-	(<1G	-fi-
*custos:C	*	*	*	*	*
0D	-can-	(<1c	-can-	0F)	-can-
.	.	1B-)	.	.	.
!LO:PB:g=original	!	!	!	!	!
*Xcol	*	*	*	*Xcol	*
=127-	=127-	=127-	=127-	=127-	=127-
1C,<	-tem	1c,<	-tem	1G,<	-tem
1C	Qui	1G	Qui	1c	Qui
*	*	*	*	*custos:c	*
1C	ex	1G	ex	1c	ex
!	!	!	!	!LO:LB:g=original	!
=128-	=128-	=128-	=128-	=128-	=128-
0F	Pa-	0A	Pa-	0c	Pa-
1Eny	-tre	1G	-tre	1c	-tre
=129-	=129-	=129-	=129-	=129-	=129-
1.F	fi-	1.A	fi-	1.c	fi-
2F\	-li-	2A/	-li-	2c\	-li-
1C	-o-	1G	-o-	1c	-o-
=130-	=130-	=130-	=130-	=130-	=130-
0D	-que	0F	-que	0A	-que
1D	pro-	1F	pro-	1A	pro-
=131-	=131-	=131-	=131-	=131-	=131-
0.G	-ce-	0.G	-ce-	0.B-	-ce-
=132-	=132-	=132-	=132-	=132-	=132-
1F,<	-dit	1A,<	-dit	1c,<	-dit
1F	Qui	1c	Qui	1f	Qui
*	*	*custos:A	*	*	*
1C	cum	1c	cum	1e	cum
!	!	!LO:LB:g=original	!	!	!
=133-	=133-	=133-	=133-	=133-	=133-
1D	Pa-	1A	Pa-	1d	Pa-
1D	-tre	1A	-tre	1d	-tre
*custos:AA	*	*	*	*	*
1GG	et	1B-	et	1d	et
!LO:LB:g=original	!	!	!	!	!
=134-	=134-	=134-	=134-	=134-	=134-
0AA	fi-	0A	fi-	0d	Fi-
1AA	-li-	1A	-li-	1c	-li-
=135-	=135-	=135-	=135-	=135-	=135-
*	*	*	*	*custos:B	*
0.D	-o	0.A	-o	0.d	-o
!	!	!	!	!LO:LB:g=original	!
=136-	=136-	=136-	=136-	=136-	=136-
0BB-	Si-	0F	Si-	0B-	Si-
1BB-	-mul	1F	-mul	1B-	-mul
=137-	=137-	=137-	=137-	=137-	=137-
0C	a-	0E	a-	0G	a-
!	!	!	!	!LO:TX:t=P:problem=♯ below	!
1AA	-do-	1C	-do-	1F#X	-do-
=138-	=138-	=138-	=138-	=138-	=138-
0.GG	-ra-	0.D	-ra-	0.G	-ra-
=139-	=139-	=139-	=139-	=139-	=139-
0.C	-tur	0.E	-tur	0.G	-tur
=140-	=140-	=140-	=140-	=140-	=140-
1F	et	1A	et	1c	et
1F	con-	1c	con-	1f	Con-
*	*	*custos:A	*	*	*
1G	-glo-	1B-	-glo-	1d	-glo-
!	!	!LO:LB:g=original	!	!	!
=141-	=141-	=141-	=141-	=141-	=141-
1.A	-ri-	1.A	-ri-	1.c	-ri-
2F\	-fi-	2A/	-fi-	2c\	-fi-
*custos:F	*	*	*	*	*
1C	-ca-	1G	-ca-	1c	-ca-
!LO:LB:g=original	!	!	!	!	!
=142-	=142-	=142-	=142-	=142-	=142-
1F	-tur	1A,<	-tur	1c	-tur
1F	Qui	1A	qui	1c	Qui
1E	lo-	1c	lo-	1G	lo-
=143-	=143-	=143-	=143-	=143-	=143-
1.D	-cu-	1.d	-cu-	1.A	-cu-
2D/	-tus	2d\	-tus	2A/	-tus
*	*	*	*	*custos:F	*
1C	eſt	1A	eſt	1c	eſt
!	!	!	!	!LO:LB:g=original	!
=144-	=144-	=144-	=144-	=144-	=144-
*	*	*	*	*col	*
0BB-	per	0B-	per	0Fny	per
1AA	Pro-	1F	Pro-	0F	Pro-
=145-	=145-	=145-	=145-	=145-	=145-
0.GG	-phe-	0.G	-phe-	.	.
.	.	.	.	0E	-phe-
*	*	*	*	*Xcol	*
=146-	=146-	=146-	=146-	=146-	=146-
0.FF	-tas	0.c	-tas	0.F	-tas
=147-	=147-	=147-	=147-	=147-	=147-
1C	et	1c	et	1G	et
1C	U-	1c	U-	1G	U-
*	*	*custos:e	*	*	*
1F	-nam	1c	-nam	1A	-nam
!	!	!LO:LB:g=original	!	!	!
=148-	=148-	=148-	=148-	=148-	=148-
1E-X	San-	1e-X	San-	1B-	San-
1E-X	-cta(m)	1e-X	-cta(m)	1B-	-cta(m)
*custos:C	*	*	*	*	*
1F	Ca-	1c	Ca-	1A	Ca-
!LO:LB:g=original	!	!	!	!	!
=149-	=149-	=149-	=149-	=149-	=149-
1.C	-tho-	1.c	-tho-	1.G	-tho-
2C/	-li-	2c\	-li-	2G/	-li-
1C	-cam	1c	-cam	1G	-cam
=150-	=150-	=150-	=150-	=150-	=150-
1F	et	1A	et	1F	et
1E-X	A-	1B-	A-	1G	A-
*	*	*	*	*custos:B	*
1C	-po-	1c	-po-	1A	-po-
!	!	!	!	!LO:LB:g=original	!
=151-	=151-	=151-	=151-	=151-	=151-
1.BB-	-ſto-	1.d	-ſto-	1.B-	-ſto-
2BB-/	-li-	2d\	-li-	2B-\	-li-
1FF	-cam	1c	-cam	1A	-cam
=152-	=152-	=152-	=152-	=152-	=152-
1GG	Ec-	1B-	Ec-	1G	Ec-
1.D	-cle-	1.A	-cle-	1G	-cle-
.	.	.	.	1F	-si-
2D/	-si-	2A/	-si-	.	.
!	!	!LO:PB:g=original	!	!	!
=153-	=153-	=153-	=153-	=153-	=153-
*M2/1	*	*M2/1	*	*M2/1	*
*met(C|)	*	*met(C|)	*	*met(C|)	*
1GG,<	-am	1B-	-am	1G	-am
!	!	!	!	!LO:TX:t=P:problem=♯ below	!
!	!	!	!	!LO:N:acc=#	!
1G	Con-	1d	Con-	1Bn	Con-
=154-	=154-	=154-	=154-	=154-	=154-
2E-X\	-fi-	2e-X\	-fi-	2c\	-fi-
*custos:G	*	*	*	*	*
2C/	-te-	2e-\	-te-	2c\	-te-
!LO:LB:g=original	!	!	!	!	!
2.G\	-or	2.d,<\	-or	2.B-\	-or
4G\	U-	4d\	U-	4B-\	U-
=155-	=155-	=155-	=155-	=155-	=155-
4G\	-num	4d\	-num	4B-\	-num
4B-\	Bap-	4B-\	Bap-	4d\	Bap-
!	!	!	!	!LO:TX:t=P:problem=kreska pseudotaktowa	!
2F\	-tiſ-	2A/	-tiſ-	2c\	-tiſ-
2BB-/	-ma	1B-	-ma	2d\	-ma
*	*	*	*	*custos:d	*
1B-\	in	.	.	1d\	in
=156-	=156-	=156-	=156-	=156-	=156-
.	.	0r	.	.	.
!	!	!	!	!LO:LB:g=original	!
2B-\	re-	.	.	2d\	re-
2.A\	-miſ-	.	.	2.c\	-miſ-
4G\	-si-	.	.	4B-\	-si-
=157-	=157-	=157-	=157-	=157-	=157-
4F\	-o-	2r	.	4A/	-o-
4Eny\	-nem	.	.	4G/	-nem
4D/	pec-	1d	in	4F/	pec-
4C/	-ca-	.	.	4E/	-ca-
1BB-	-to-	.	.	1D	-to-
.	.	2d\	re-	.	.
=158-	=158-	=158-	=158-	=158-	=158-
0C	.	2.c\	-miſ-	1G,<	-rum
*	*	*custos:A	*	*	*
.	.	4B-\	-si-	.	.
!	!	!LO:LB:g=original	!	!	!
.	.	4A/	-o-	2.c\	pec-
.	.	4G/	-nem	.	.
.	.	1c\	pec-	.	.
.	.	.	.	4B-\	-ca-
=159-	=159-	=159-	=159-	=159-	=159-
0D	.	.	.	2A/	-to-
.	.	2B-\	-ca-	4B-\	.
.	.	.	.	4c\	.
.	.	1A	-to-	2d\	.
.	.	.	.	2d\	-rum
=160-	=160-	=160-	=160-	=160-	=160-
2GG,</	-rum	2B-,<\	-rum	2.d\	et
1G	et	2.B-\	et	.	.
.	.	.	.	4c\	.
.	.	.	.	2B-\	.
.	.	4B-\	ex-	.	.
*custos:E	*	*	*	*custos:B	*
2F\	ex-	1d\	-pe-	2A/	ex-
!LO:LB:g=original	!	!	!	!LO:PB:g=original	!
=161-	=161-	=161-	=161-	=161-	=161-
1E-X	-pe-	.	.	2B-\	.
.	.	2c\	.	2G/	.
1D	-cto	2d,<\	-cto	1A	-pe-
.	.	2.d\	re-	.	.
=162-	=162-	=162-	=162-	=162-	=162-
!	!	!	!	!LO:TX:t=P:problem=♯ below	!
!	!	!	!	!LO:N:acc=#	!
2.G\	re-	.	.	2.Bn,<\	-cto
.	.	4d\	-ſur-	.	.
.	.	4d\	-re-	.	.
!	!	!	!	!LO:TX:t=P:problem=♯ below	!
!	!	!	!	!LO:N:acc=#	!
4G\	-ſur-	4d\	-cti-	4Bn\	re-
!	!	!	!	!LO:TX:t=P:problem=♯ below	!
!	!	!	!	!LO:N:acc=#	!
4G\	-re-	2G/	-o-	4Bn\	-ſur-
!	!	!	!	!LO:TX:t=P:problem=♯ below	!
!	!	!	!	!LO:N:acc=#	!
4G\	-cti-	.	.	4Bn\	-re-
4C/	-o-	2G/	-nem	4c\	-cti-
4C/	-nem	.	.	4c\	-o-
=163-	=163-	=163-	=163-	=163-	=163-
2F\	Mor-	2A/	mor-	2c\	-nem
!	!	!	!	!LO:TX:t=P:problem=kreska pseudotaktowa	!
2D/	-tu-	2B-\	-tu-	2F/	mor-
*	*	*custos:F	*	*	*
1C	-o-	1c	-o-	2G/	-tu-
.	.	.	.	2A/	-o-
!	!	!LO:LB:g=original	!	!	!
=164-	=164-	=164-	=164-	=164-	=164-
2BB-,</	-rum	1F	-rum	2B-y,<\	-rum
!	!	!	!	!LO:TX:t=P:problem=kreska pseudotaktowa	!
2B-\	et	.	.	2d\	et
2B-\	Vi-	0r	.	2d\	Vi-
4B-\	-ta(m)	.	.	4d\	-ta(m)
4B-\	Ven-	.	.	4d\	Ven-
=165-	=165-	=165-	=165-	=165-	=165-
2A\	-tu-	.	.	2c\	-tu-
*custos:F	*	*	*	*custos:A	*
2G\	-ri	.	.	2B-\	-ri
!LO:PB:g=original	!	!	!	!LO:LB:g=original	!
2F\	Sae-	1f	et	2A/	Sae-
4D/	.	.	.	4F/	.
4Eny\	.	.	.	4G/	.
=166-	=166-	=166-	=166-	=166-	=166-
4F\	.	2f\	Vi-	4A/	.
4G\	.	.	.	4B-\	.
4A\	.	4f\	-tam	4c\	.
4F\	.	4f\	Ven-	4A/	.
1G	.	4eny\	-tu-	2B-\	.
.	.	4d\	-ri	.	.
.	.	1d\	Sae-	2d\	cu-
=167-	=167-	=167-	=167-	=167-	=167-
2.A\	.	.	.	1A	-li
!	!	!LO:TX:t=P:problem=♯ below	!	!	!
.	.	2c#X\	-cu-	.	.
4A\	-cu-	.	.	.	.
2D,</	-li	0d	-li	2rc	.
2D/	et	.	.	2f\	et
=168-	=168-	=168-	=168-	=168-	=168-
2D/	Vi-	.	.	2f\	Vi-
4D/	-ta(m)	.	.	4f\	-ta(m)
4D/	Ven-	.	.	4f\	Ven-
2.C/	-tu-	2rc	.	2e\	-tu-
.	.	2cny\	et	2d\	-ri
4BB-/	-ri	.	.	.	.
=169-	=169-	=169-	=169-	=169-	=169-
4AA/	Sae-	2c\	Vi-	4c\	Sae-
4BB-/	.	.	.	4d\	.
4C/	.	4c\	-ta(m)	4e\	.
*custos:BB	*	*	*	*	*
4AA/	.	4c\	Ven-	4c\	.
*	*	*	*	*custos:c	*
!LO:LB:g=original	!	!	!	!	!
1BB-	.	2B-\	-tu-	1d	.
.	.	2A/	-ri	.	.
!	!	!	!	!LO:LB:g=original	!
=170-	=170-	=170-	=170-	=170-	=170-
1C	.	2.G/	Sae-	1.c	.
*	*	*custos:D	*	*	*
.	.	4G/	-cu-	.	.
!	!	!LO:LB:g=original	!	!	!
1.D	.	2D/	-li	.	.
.	.	2d\	et	2B-\	-cu-
=171-	=171-	=171-	=171-	=171-	=171-
.	.	2d\	Vi-	2A,</	-li
2D/	-cu-	4d\	-ta(m)	2d\	et
.	.	4d\	Ven-	.	.
2GG,</	-li	1B-	-tu-	2d\	Vi-
*	*ij	*	*	*	*
2G\	et	.	.	4d\	-ta(m)
.	.	.	.	4d\	Ven-
=172-	=172-	=172-	=172-	=172-	=172-
2G\	Vi-	1G	-ri	1B-	-tu-
4G\	-t(am)	.	.	.	.
4G\	Ven-	.	.	.	.
1E-X	-tu-	2r	.	2G/	-ri
*	*	*	*ij	*	*
.	.	2c\	et	2.G/	Sae-
=173-	=173-	=173-	=173-	=173-	=173-
1C	-ri	2c\	Vi-	.	.
.	.	.	.	4F/	.
.	.	4c\	-t(am)	4E-X/	.
.	.	4c\	Ven-	8D/L	.
.	.	.	.	8C/J	.
!LO:N:acc=#	!	!	!	!	!
1BBn	Sae-	2G/	-tu-	1D	.
.	.	2G/	-ri	.	.
=174-	=174-	=174-	=174-	=174-	=174-
*	*	*	*Xij	*	*
2.C/	-cu-	2.E-X/	Sae-	2.G/	.
4C/	.	4E-/	.	4G/	cu-
1GG	-li	2D/	-cu-	1G	-li
*	*Xij	*	*	*	*
.	.	2d\	-li	.	.
=175-	=175-	=175-	=175-	=175-	=175-
0C	A-	2.e\	A-	0G	A-
.	.	4d\	.	.	.
!	!	!LO:TX:t=P:problem=♯ below	!	!	!
.	.	1c#X	.	.	.
=176-	=176-	=176-	=176-	=176-	=176-
0GG;;l	-men.	0d;;l	-men	0G;;l	-men.
=-	=-	=-	=-	=-	=-
*-	*-	*-	*-	*-	*-
!!!system-decoration: [(s1,s2,s3)]
!!!RDF**kern: l = terminal long
!!!RDF**kern: > = above
!!!RDF**kern: < = below
!!!EED: Antoni Szymański
!!!EEV: 2021-03-21
!!!ENC: Andrzej Kubiczek
!!!END: 2021-03-07
